X:1
T: SO LEB DENN WOHL
N: B0489
O: Europa, Mitteleuropa, Deutschland
R: Abschieds - Lied
M: 3/4
L: 1/8
K: Eb
B=AB | c3FAD | E2z
B=AB | d3cBA | G2z
B=AB | d3Bcd | e3
GFG | c3BAF | E2z

@@@ Tune index: 2219
